**kern	**kern
*part1	*part1
*staff2	*staff1
*I"Piano	*
*clefF4	*clefG2
*k[]	*k[]
=1	=1
*	*^
(4d	(8ffL	4a
.	8eeJ	.
4f	4dd	4a
*	*v	*v
=	=
4e)	4g#X) 4b 4ee
(4A	(4a 4cc
=	=
4E)	4g#X) 4b 4ee
(4AA	(4a 4cc
=	=
4GG#X	4e 4b
4EE	4g#X 4ee
=	=
4AA	4e 4cc
4C)	4e) [4a
=	=
4D	4f 4a] [4b
4E	4e 4g#X 4b]
=	=
4AA	4e 4a 4cc
4DD	4f 4a 4dd
=	=
*-	*-
!!!system-decoration: {(s1,s2)}
